images/facebook.svg

<?xml version="1.0" encoding="utf-8"?>
<!-- Generator: Adobe Illustrator 23.0.0, SVG Export Plug-In . SVG Version: 6.00 Build 0)  -->
<svg version="1.1" id="图层_1" xmlns="http://www.w3.org/2000/svg" xmlns:xlink="http://www.w3.org/1999/xlink" x="0px" y="0px"
	 viewBox="0 0 42 42" style="enable-background:new 0 0 42 42;" xml:space="preserve">
<style type="text/css">
	.st0{fill:#2D2D2D;}
</style>
<title>资源 8</title>
<g id="ed9203e4-133e-4231-9203-a0850b62e8f5">
	<g id="fc28a3f3-e795-4a4a-924b-72ef25ece0e1">
		<path id="e9912080-6196-49c6-8ddf-ac03925c0cd4" class="st0" d="M37,0H5C2.2,0,0,2.2,0,5v32c0,2.8,2.2,5,5,5h32c2.8,0,5-2.2,5-5V5
			C42,2.2,39.8,0,37,0z M33,15h-2c-2.1,0-3,0.5-3,2v3h5l-1,5h-4v15h-5V25h-4v-5h4v-3c0-4,2-7,6-7s4,1,4,1V15z"/>
	</g>
</g>
</svg>

<svg xmlns="http://www.w3.org/2000/svg" viewBox="0 0 42 42"><defs><style>.e314b2f7-b961-4614-9693-6c49aa9d9a34{fill:#fff;}</style></defs><title>资源 8</title><g id="ed9203e4-133e-4231-9203-a0850b62e8f5" data-name="图层 2"><g id="fc28a3f3-e795-4a4a-924b-72ef25ece0e1" data-name="图层 1"><path id="e9912080-6196-49c6-8ddf-ac03925c0cd4" data-name="Path 127" class="e314b2f7-b961-4614-9693-6c49aa9d9a34" d="M37,0H5A5,5,0,0,0,0,5V37a5,5,0,0,0,5,5H37a5,5,0,0,0,5-5V5A5,5,0,0,0,37,0ZM33,15H31c-2.1,0-3,.5-3,2v3h5l-1,5H28V40H23V25H19V20h4V17c0-4,2-7,6-7s4,1,4,1Z"/></g></g></svg>
